src/assets/svg/accordion-item-icon-4.svg

<svg width="32" height="32" viewBox="0 0 32 32" fill="none" xmlns="http://www.w3.org/2000/svg">
<path fill-rule="evenodd" clip-rule="evenodd" d="M13.6784 4.16786C13.4166 4.26968 13.2857 4.41512 13.3148 4.57511C13.3584 4.82238 8.02036 12.0367 6.65314 16.4147C6.23133 17.782 6.91496 17.9711 10.0276 17.3747C11.9185 17.0111 11.8457 16.6329 10.5948 20.1528C9.664 22.7418 8.98036 24.909 8.66042 26.2326C8.22405 27.978 9.14036 28.8943 11.4094 26.5235C12.3839 25.5053 14.5947 23.2218 19.7727 17.3165C24.1653 12.3131 24.1507 12.444 20.689 12.3131L18.551 12.2258C19.5546 11.164 23.3071 7.12051 24.4562 6.17505C25.6052 5.21509 25.9689 4.82239 24.4272 4.60421C22.6381 4.3424 16.5874 4.24059 14.8129 4.08059C14.4056 4.03696 13.8966 4.08059 13.6784 4.16786ZM22.3035 5.6369L21.5472 6.26232C19.7 7.77499 16.0492 12.124 16.0492 12.793C16.0492 13.5203 17.271 13.4475 20.4273 13.4475C15.7729 18.8437 12.1366 23.0473 12.0493 23.0473C12.0202 23.0473 12.3548 22.0873 12.8057 20.8946C14.4929 16.3711 14.5802 15.5275 13.3875 15.6729C11.3221 15.9202 9.30036 16.1966 9.024 16.2838C8.77678 16.3565 8.93672 15.9639 9.86757 14.2185C11.5258 11.0477 12.1948 10.1313 15.1038 5.28782C20.6454 5.53508 20.5872 5.53509 22.3035 5.6369Z" fill="#006B99"/>
</svg>

<svg xmlns="http://www.w3.org/2000/svg" width="32" height="32" fill="none">
  <path fill="#006B99" fill-rule="evenodd" d="M13.68 4.17c-.26.1-.4.25-.37.4.05.25-5.29 7.47-6.66 11.84-.42 1.37.26 1.56 3.38.96 1.89-.36 1.82-.74.56 2.78a66.58 66.58 0 0 0-1.93 6.08c-.44 1.75.48 2.66 2.75.3.97-1.02 3.18-3.3 8.36-9.21 4.4-5 4.38-4.88.92-5l-2.14-.1c1-1.06 4.76-5.1 5.9-6.04 1.16-.96 1.52-1.36-.02-1.58-1.8-.26-7.84-.36-9.62-.52-.4-.04-.91 0-1.13.09Zm8.62 1.47-.75.62c-1.85 1.51-5.5 5.86-5.5 6.53 0 .73 1.22.66 4.38.66-4.66 5.4-8.3 9.6-8.38 9.6-.03 0 .3-.96.76-2.16 1.68-4.52 1.77-5.36.58-5.22-2.07.25-4.09.53-4.37.61-.24.08-.08-.32.85-2.06 1.66-3.17 2.32-4.09 5.23-8.93 5.55.25 5.49.25 7.2.35Z" clip-rule="evenodd"/>
</svg>
